!!!ONB: MCCC : ICD0088_00 : Extracted Monophonic Melody
!!!COM: Debussy, Claude
!!!OTL: Valse Romantique
!!!SCT: CD 79 ; L.71
!!!ODT: 1890///
**kern
*staff1
*clefG2
*k[b-e-a-]
*E-:
*M3/4
8g
4g
4a-
=6
8r
8b-
4b-
4cc
=7
8r
8g
8g
8a-
8b-
8cc
=8
2.g
=9
8r
8g
8a-
8f
4c[
=10
8c]
8f
2cc[
=11
8cc]
8f
8c
8f
8cc
8ff
=12
12gg
12cc
12g
4r
12ggg
12ccc
12gg
=13
4r
12gg
12cc
12g
4r
=14
12ggg
12ccc
12gg
4r
12gg
12cc
12g
=15
2.r
=16
8r
8g
4g
4a-
=17
8r
8b-
4b-
4cc
=18
8r
8g
8g
8a-
8b-
8cc
=19
2.g
=20
8r
8g
8a-
8f
4c[
=21
8c]
8f
2cc[
=22
8cc]
8f
8c
8f
8cc
8ff
=23
12gg
12cc
12g
4r
12ggg
12ccc
12gg
=24
4r
12gg
12cc
12g
4r
=25
12ggg
12ccc
12gg
4r
12gg
12cc
12g
=26
2.r
=27
4r
4r
4gg[
=28
8gg]
8ff
8ee-
8dd-
4f
=29
4r
4r
4gg[
=30
8gg]
8ff
8ee-
8dd-
4f
=31
4r
4gg
4aa-
=32
4r
4ee-
4ff
=33
4r
4cc
4a-[
=34
4a-]
4f
4d
=35
4r
4r
4gg[
=36
8gg]
8ff
8ee-
8dd-
4f
=37
4r
4r
4gg[
=38
8gg]
8ff
8ee-
8dd-
4f
=39
4r
4gg
4aa-[
=40
4aa-]
4ee-
4cc
=41
4r
4ee
4ff[
=42
4ff]
4cc
4a-
=43
4r
8a-
8cc
8aa-
8ccc
=44
4c
4e-
4c
=45
4r
8a-
8cc
8aa-
8ccc
=46
4c
4e-
4c
=47
4r
8a-
8cc
8aa-
8ccc
=48
4d
4e-
4d
=49
4r
8a-
8cc
8aa-
8ccc
=50
4d
4e-
4d
=51
4r
8d
8g
8gg
8cc
=52
8dd
8gg
8ggg
8ccc
8ddd
8ggg
=53
8gggg
8cccc
8dd
8gg
8ggg
8ccc
=54
8d
8g
8gg
8cc
4r
=55
4r
8d
8g
8gg
8b
=56
8dd
8gg
8ggg
8bb
8ddd
8ggg
=57
8gggg
8bbb
8dd
8gg
8ggg
8bb
=58
8d
8g
8gg
8b
4r
=59
8r
8gg
4gg
4aa-
=60
8r
8bb-
4bb-
4ccc
=61
8r
8gg
8gg
8aa-
8bb-
8ccc
=62
2.gg
=63
8r
8gg
8aa-
8ff
4cc[
=64
8cc]
8ff
2ccc[
=65
8ccc]
8ff
8cc
8ff
8ccc
8fff
=66
12aaa-
12ddd-
12aa-
4r
12aa-
12dd-
12a-
=67
4r
12aaa-
12ddd-
12aa-
4r
=68
12aa-
12dd-
12a-
12gg
12b-
12g
12aa-
12dd-
12a-
=69
12gg
12b-
12g
12ff
12a-
12f
8gg
8aa-
=70
4bb-
12aa-
12dd-
12a-
4r
=71
12aaa-
12ddd-
12aa-
4r
12aa-
12aa-
12aa-[
=72
4aa-]
12gg
12b-
12g
12aa-
12dd-
12a-
=73
12gg
12b-
12g
12ff
12a-
12f
8ee-
8ff
=74
2cc
8a-
8b-
=75
4cc
4ff
4aa-
=76
4r
4cc
8a-
8b-
=77
4cc
4ff
4aa-
=78
4r
4ccc
4bb-
=79
4aa-
8gg
8aa-
4ff[
=80
8ff]
8gg
4ee-
8b-
8dd-
=81
2.ff
=82
2.ee
=83
4ddd-
4.ccc
8aa-
=84
8bb-
8ccc
4gg
8bb-
8ccc
=85
2ddd-
4fff[
=86
4fff]
8bb-
8ccc
4ddd-
=87
4r
4ff
4ccc
=88
4r
4cc
4g
=89
4r
8b-
8a-
8f
8a-
=90
4r
8b-
8a-
8b-
8cc
=91
4r
8b-
8a-
8f
8a-
=92
8b-
8a-
8cc
8ee-
8aa-
8ccc
=93
4r
8bb-
8aa-
8ff
8aa-
=94
4r
8bb-
8aa-
8bb-
8ccc
=95
4r
8bb-
8aa-
8ff
8aa-
=96
8bb-
8aa-
8ccc
8eee-
8aaa-
8cccc
=97
4eeee-
4r
4r
=98
2.r
=99
2.r
=100
4r
4.dddd-
8bbb-
=101
8bbb
8dddd-
4aaa-
8bbb
8dddd-
=102
4eeee-
4r
4r
=103
2.r
=104
2.r
=105
2.r
=106
2.r
=107
8r
8g
4g
4a-
=108
8r
8b-
4b-
4cc
=109
8r
8g
8g
8a-
8b-
8cc
=110
4g
4.eee-
8ccc
=111
8ddd-
8eee-
4bb-
8ddd-
8eee-
=112
8fff
8g
4g
4a-
=113
8r
8b-
4b-
4cc
=114
8r
8g
8g
8a-
8b-
8cc
=115
2.g
=116
8r
8g
8a-
8f
4c[
=117
8c]
8f
2cc[
=118
8cc]
8f
8c
8f
8cc
8ff
=119
12gg
12cc
12g
4r
12gggg
12cccc
12ggg
=120
4r
12ggg
12ccc
12gg
4r
=121
12gg
12cc
12g
12ff
12b-
12f
12gg
12cc
12g
=122
12ff
12b-
12f
12ee
12g
12e
8ff
8gg
=123
4aa
12gg
12cc
12g
4r
=124
12gggg
12cccc
12ggg
4r
12ggg
12ccc
12gg
=125
4r
12ff
12b-
12f
12gg
12cc
12g
=126
12ff
12b-
12f
12ee
12g
12e
8ff
8gg
=127
12aa
12ff
12a
12aa
12ff
12a
12aa
12ff
12a
=128
12aa-
12ff
12a-
12aa-
12ff
12a-
12aa-
12ff
12a-
=129
12aa
12ff
12a
12aa
12ff
12b-
12aa
12ff
12cc
=130
12ccc
12ff
12dd
12ccc
12ff
12dd
12ccc
12gg
12ee
=131
12ccc
12aa
12cc
12ccc
12aa
12cc
12ccc
12aa
12cc
=132
12bb
12aa-
12b
12bb
12aa-
12b
12bb
12aa-
12b
=133
12bb-
12ff
12b-
12ccc
12gg
12cc
12ddd
12bb-
12dd
=134
12bb-
12ff
12b-
12ccc
12gg
12cc
12ddd
12bb-
12dd
=135
12ddd
12bb-
12dd
12bb-
12ff
12b-
12ddd
12bb-
12dd
=136
12ddd
12bb-
12dd
12bb-
12ff
12b-
12ddd
12bb-
12dd
=137
4r
4aaa
4gg
=138
4ff
8ee
8ff
4ee[
=139
8ee]
8ff
4cc
8g
8b-
=140
4dd
8ee
8ff
4gg[
=141
4gg]
4ff
4gg
=142
4dd
8ee
8ff
4gg[
=143
4gg]
4ff
4gg
=144
4bb-
4r
4r
=145
2.r
=146
8r
8g
8g
8a
8b-
8cc
=147
8g
8a
8b-
8cc
8dd
8ee
=148
2gg
4ff[
=149
4ff]
2fff
=150
2.r
=151
2.r
==
*-
